public/img/vk.svg

<svg width="25" height="24" viewBox="0 0 25 24" fill="none" xmlns="http://www.w3.org/2000/svg">
<g clip-path="url(#clip0)">
<path d="M24.2861 17.3672C24.2216 17.2592 23.8225 16.3922 21.9024 14.61C19.8923 12.7439 20.1623 13.0469 22.5834 9.82017C24.0581 7.85503 24.6476 6.65494 24.4631 6.1419C24.2876 5.65286 23.203 5.78187 23.203 5.78187L19.5967 5.80287C19.5967 5.80287 19.3297 5.76687 19.1302 5.88538C18.9367 6.00239 18.8122 6.27241 18.8122 6.27241C18.8122 6.27241 18.2406 7.79352 17.4786 9.08662C15.872 11.8153 15.2284 11.9593 14.9659 11.7898C14.3553 11.3953 14.5084 10.2027 14.5084 9.35664C14.5084 6.71194 14.9089 5.60936 13.7268 5.32434C13.3338 5.22983 13.0457 5.16683 12.0422 5.15633C10.7551 5.14282 9.6645 5.16083 9.04796 5.46235C8.63693 5.66336 8.32041 6.1119 8.51392 6.1374C8.75244 6.1689 9.29248 6.28291 9.579 6.67294C9.94952 7.17548 9.93602 8.30656 9.93602 8.30656C9.93602 8.30656 10.149 11.4193 9.43949 11.8063C8.95195 12.0718 8.2844 11.5303 6.8518 9.05362C6.11824 7.78602 5.5632 6.38342 5.5632 6.38342C5.5632 6.38342 5.4567 6.1224 5.26618 5.98289C5.03517 5.81337 4.71114 5.75937 4.71114 5.75937L1.28189 5.78037C1.28189 5.78037 0.767354 5.79537 0.578341 6.01889C0.410328 6.2184 0.56484 6.62943 0.56484 6.62943C0.56484 6.62943 3.25004 12.9104 6.28926 16.0771C9.07796 18.9799 12.2432 18.7893 12.2432 18.7893H13.6773C13.6773 18.7893 14.1108 18.7413 14.3313 18.5028C14.5354 18.2838 14.5279 17.8728 14.5279 17.8728C14.5279 17.8728 14.4994 15.9481 15.3934 15.6646C16.274 15.3856 17.4051 17.5247 18.6037 18.3483C19.5097 18.9709 20.1983 18.8343 20.1983 18.8343L23.404 18.7893C23.404 18.7893 25.0811 18.6858 24.2861 17.3672Z" fill="#333333"/>
</g>
<defs>
<clipPath id="clip0">
<rect x="0.5" width="24" height="24" fill="white"/>
</clipPath>
</defs>
</svg>

<svg width="25" height="24" fill="none" xmlns="http://www.w3.org/2000/svg"><g clip-path="url(#clip0)"><path d="M24.286 17.367c-.064-.108-.463-.975-2.384-2.757-2.01-1.866-1.74-1.563.681-4.79 1.475-1.965 2.065-3.165 1.88-3.678-.175-.49-1.26-.36-1.26-.36l-3.606.02s-.267-.035-.467.083c-.193.117-.318.387-.318.387s-.571 1.522-1.333 2.815c-1.607 2.728-2.25 2.872-2.513 2.703-.61-.395-.458-1.587-.458-2.433 0-2.645.4-3.748-.781-4.033-.393-.094-.681-.157-1.685-.168-1.287-.013-2.377.005-2.994.306-.411.201-.728.65-.534.675.238.032.778.146 1.065.536.37.502.357 1.634.357 1.634s.213 3.112-.497 3.5c-.487.265-1.155-.277-2.587-2.753a23.087 23.087 0 01-1.289-2.67s-.106-.262-.297-.401a1.495 1.495 0 00-.555-.224l-3.43.021s-.514.015-.703.239c-.168.2-.013.61-.013.61s2.685 6.281 5.724 9.448c2.789 2.903 5.954 2.712 5.954 2.712h1.434s.434-.048.654-.286c.204-.22.197-.63.197-.63s-.029-1.925.865-2.208c.881-.28 2.012 1.86 3.21 2.683.907.623 1.595.486 1.595.486l3.206-.045s1.677-.103.882-1.422z" fill="#333"/></g><defs><clipPath id="clip0"><path fill="#fff" d="M.5 0h24v24H.5z"/></clipPath></defs></svg>
